X:13
T:Forneth House
C:Robert Petrie
S:Petrie's Collection of Strathspey Reels and Country Dances &c., 1790
Z:Steve Wyrick <sjwyrick'at'gmail'dot'com>, 3/5/04
N:Petrie's First Collection, page 7
L:1/8
M:C
R:Strathspey
K:D
"^Slow"
A|F<AA>B      A<FA>B| d/c/d/e/     f>e         d<BB>d       |\
  F<AA>B      A<Fd>B|(B/A/)(G/F/) (A/G/)(F/E/) D2  D       :|
f|a>ba<f      d<Ad>f| e>f          g/f/e/d/    B2  B>f      |\
  a>ba<f      d<Ad<f| e>f (a/g/)  (f/e/)       d2 (d/e/f/g/)|
  a>ba<f      d>Ad<f|(e/f/e/f/)   (g/f/e/d/)   B2 (B/c/d/B/)|\
  A2 B/A/G/F/ F>dA<F|TE>DEF                    D2  D        |]
